src/assets/icons/Eraseduser-Grey.svg

<svg width="24" height="24" viewBox="0 0 24 24" fill="none" xmlns="http://www.w3.org/2000/svg">
<g id="Eraseduser-Grey">
<g id="Group">
<path id="Vector" d="M15 12C17.21 12 19 10.21 19 8C19 5.79 17.21 4 15 4C12.79 4 11 5.79 11 8C11 10.21 12.79 12 15 12ZM15 14C12.33 14 7 15.34 7 18V20H23V18C23 15.34 17.67 14 15 14Z" fill="#BABABA"/>
<g id="Union">
<path d="M6.8125 3L7.25 3.45H9V4.35H2V3.45H3.75L4.1875 3H6.8125Z" fill="#BABABA"/>
<path fill-rule="evenodd" clip-rule="evenodd" d="M2.4375 11.1V5.25H8.5625V11.1C8.5625 11.595 8.16875 12 7.6875 12H3.3125C2.83125 12 2.4375 11.595 2.4375 11.1ZM3.49044 10.791H7.5343V6.15H3.49044V10.791Z" fill="#BABABA"/>
</g>
</g>
</g>
</svg>

<?xml version="1.0" encoding="utf-8"?>
<!-- Generator: Adobe Illustrator 21.0.0, SVG Export Plug-In . SVG Version: 6.00 Build 0)  -->
<svg version="1.1" id="Layer_1" xmlns="http://www.w3.org/2000/svg" xmlns:xlink="http://www.w3.org/1999/xlink" x="0px" y="0px"
	 viewBox="0 0 24 24" style="enable-background:new 0 0 24 24;" xml:space="preserve">
<style type="text/css">
	.st0{fill:#BABABA;}
</style>
<path class="st0" d="M15,12c2.2,0,4-1.8,4-4s-1.8-4-4-4s-4,1.8-4,4S12.8,12,15,12z M15,14c-2.7,0-8,1.3-8,4v2h16v-2
	C23,15.3,17.7,14,15,14z"/>
<path class="st0" d="M6.8,3l0.4,0.5H9v0.9H2V3.5h1.8L4.2,3H6.8z"/>
<path class="st0" d="M2.4,11.1V5.3h6.1v5.9c0,0.5-0.4,0.9-0.9,0.9H3.3C2.8,12,2.4,11.6,2.4,11.1z M3.5,10.8h4V6.2h-4V10.8z"/>
</svg>
